!!!!SEGMENT: pl-kk--kk-i-111--002-002_anonim--deo-gratias-de-clasis-2dum.krn
!!!cenid: 18xx:2556
!!!COM: Anonim
!!!COM-rismID: pe30004985
!!!CDT:
!!!CNT:
!!!GTL: Deo gratias
!!!OTL: de clasis 2dum
!!!OMV: 002
!!!PDT: 1824
!!!AGN: Sacred
!!!SMS-siglum: PL-Kk
!!!SMS-shelfmark: Kk.I.111
!!!SMS-shelfwork: 002-002 G
!!!SMS-variant:
!!!SMS-altvar:
!!!NIFC-rismSourceID: 1001157670
!!!NIFC-islandoraID: pl-kk:3371
!!!URL-pdf-islandora: https://repozytorium.nifc.pl/islandora/object/pl-kk%3A3371/datastream/PDF/view
!!!URL-scan: https://polish.musicsources.pl/pl/lokalizacje/galeria/rekopisy/5747 @EN{Scan on Polish Music Herritage in Open Access Website} @PL{Skany w portalu Dziedzictwo Muzyki Polskiej w otwartym dostępie}
!!!ONB-nifc: UWAGA: A, T1, T2. Podział na poszególne Deo gratias. A: skan 0002 (m.in)
!!!AIN: 1 alto 2 tenor
!!!key:
**kern	**text	**kern	**text	**kern	**text
*part3	*part3	*part2	*part2	*part1	*part1
*staff3	*staff3	*staff2	*staff2	*staff1	*staff1
*Itenor	*	*Itenor	*	*Ialto	*
*I"Tenore Vagante	*	*I"Tenore Chorale.	*	*I"Alto.	*
*I'T 2	*	*I'T 1	*	*I'A	*
*clefC4	*	*clefC4	*	*clefC3	*
*k[]	*	*k[]	*	*k[]	*
*G:	*	*G:	*	*G:	*
*M2/1	*	*M2/1	*	*M2/1	*
*met(C|)	*	*met(C|)	*	*met(C|)	*
=1-	=1-	=1-	=1-	=1-	=1-
*all\right	*	*	*	*all\right	*
!	!	!LO:TX:a:t=2dum	!	!LO:TX:a:t=2 Claſsis 2dum.	!
!LO:TX:a:t=2de Claſsis 2dum.	!	!LO:TX:t=P:problem=kreska pseudotaktowa	!	!LO:TX:t=P:problem=kreska pseudotaktowa	!
2r	.	1G	De-	1r	.
1G	De-	.	.	.	.
!	!	!LO:TX:t=P:problem=kreska pseudotaktowa	!	!LO:TX:t=P:problem=kreska pseudotaktowa	!
.	.	1A	.	1c	De-
!LO:TX:t=P:problem=kreska pseudotaktowa	!	!	!	!	!
[>2Fn/	-o	.	.	.	.
=2-	=2-	=2-	=2-	=2-	=2-
*	*	*	*	*2\right	*
!	!	!LO:TX:t=P:problem=kreska pseudotaktowa	!	!	!
2Fn]	.	1Bn	.	2d\	-o
!	!	!	!	!LO:TX:t=P:problem=kreska pseudotaktowa	!
1G	.	.	.	2e\	.
!	!	!LO:TX:t=P:problem=kreska pseudotaktowa	!	!	!
.	.	1c	.	2c\	gra-
!LO:TX:t=P:problem=kreska pseudotaktowa	!	!	!	!LO:TX:t=P:problem=kreska pseudotaktowa	!
2A/	.	.	.	2e\	.
=3-	=3-	=3-	=3-	=3-	=3-
*2\right	*	*	*	*	*
!	!	!LO:TX:t=P:problem=kreska pseudotaktowa	!	!	!
2B\	gra-	1B	-o	2f\	.
!LO:TX:t=P:problem=kreska pseudotaktowa	!	!	!	!LO:TX:t=P:problem=kreska pseudotaktowa	!
2G/	.	.	.	2g\	.
!	!	!LO:TX:t=P:problem=kreska pseudotaktowa	!	!	!
2c\	.	1A	.	2c\	.
!	!	!	!	!LO:TX:t=P:problem=kreska pseudotaktowa	!
1d\	.	.	.	2f\	.
=4-	=4-	=4-	=4-	=4-	=4-
!	!	!LO:TX:t=P:problem=kreska pseudotaktowa	!	!LO:TX:t=P:problem=kreska pseudotaktowa	!
.	.	1G	.	1g	.
!LO:TX:t=P:problem=kreska pseudotaktowa	!	!	!	!	!
2c#X\	-ti-	.	.	.	.
!LO:TX:t=P:problem=kreska pseudotaktowa	!	!LO:TX:t=P:problem=kreska pseudotaktowa	!	!	!
1d	-as	1A	.	4f\	.
.	.	.	.	4e\	.
.	.	.	.	4d\	.
!	!	!	!	!LO:TX:t=P:problem=kreska pseudotaktowa	!
.	.	.	.	4c\	.
=5-	=5-	=5-	=5-	=5-	=5-
!LO:TX:t=P:problem=kreska pseudotaktowa	!	!LO:TX:t=P:problem=kreska pseudotaktowa	!	!	!
1B	De-	1B	.	2d\	.
!	!	!	!	!LO:TX:t=P:problem=kreska pseudotaktowa	!
.	.	.	.	2g\	.
!	!	!LO:TX:t=P:problem=kreska pseudotaktowa	!	!	!
2cny\	-o	1E	.	2e\	.
!LO:TX:t=P:problem=kreska pseudotaktowa	!	!	!	!LO:TX:t=P:problem=kreska pseudotaktowa	!
2e\	.	.	.	2g\	-ti-
=6-	=6-	=6-	=6-	=6-	=6-
!	!	!LO:TX:t=P:problem=kreska pseudotaktowa	!	!	!
2f\	.	1F	.	2c\	-as
!LO:TX:t=P:problem=kreska pseudotaktowa	!	!	!	!	!
2d\	.	.	.	1g	De-
!	!	!LO:TX:t=P:problem=kreska pseudotaktowa	!	!	!
2e\	gra-	1E	.	.	.
!	!	!	!	!LO:TX:t=P:problem=kreska pseudotaktowa	!
1c\	.	.	.	2g\	-o
=7-	=7-	=7-	=7-	=7-	=7-
!	!	!LO:TX:t=P:problem=kreska pseudotaktowa	!	!	!
.	.	1D	.	2a\	gra-
!LO:TX:t=P:problem=kreska pseudotaktowa	!	!	!	!	!
2B\	-ti-	.	.	1g	.
!LO:TX:t=P:problem=kreska pseudotaktowa	!	!LO:TX:t=P:problem=kreska pseudotaktowa	!	!	!
1c	-as.	1C	.	.	.
!	!	!	!	!LO:TX:t=P:problem=kreska pseudotaktowa	!
.	.	.	.	2fn\	.
!LO:LB:g=original	!	!	!	!LO:LB:g=original	!
=8-	=8-	=8-	=8-	=8-	=8-
!LO:TX:t=P:problem=kreska pseudotaktowa	!	!LO:TX:t=P:problem=kreska pseudotaktowa	!	!	!
1e	De-	1G	gra-	2c\	.
.	.	.	.	1e	.
!	!	!LO:TX:t=P:problem=kreska pseudotaktowa	!	!	!
2e\	-o	1A	.	.	.
1d\	.	.	.	1f\	.
=9-	=9-	=9-	=9-	=9-	=9-
!	!	!LO:TX:t=P:problem=kreska pseudotaktowa	!	!	!
.	.	1B	.	.	.
!LO:TX:t=P:problem=kreska pseudotaktowa	!	!	!	!	!
2B\	.	.	.	1g	.
!	!	!LO:TX:t=P:problem=kreska pseudotaktowa	!	!	!
2G/	gra-	1c	.	.	.
!LO:TX:t=P:problem=kreska pseudotaktowa	!	!	!	!LO:TX:t=P:problem=kreska pseudotaktowa	!
2f\	.	.	.	2a\	.
=10-	=10-	=10-	=10-	=10-	=10-
!	!	!LO:TX:t=P:problem=kreska pseudotaktowa	!	!LO:TX:t=P:problem=kreska pseudotaktowa	!
2d\	.	1B	.	1g	.
!LO:TX:t=P:problem=kreska pseudotaktowa	!	!	!	!	!
2e\	.	.	.	.	.
!	!	!LO:TX:t=P:problem=kreska pseudotaktowa	!	!LO:TX:t=P:problem=kreska pseudotaktowa	!
2c\	.	1A	.	1fn	.
!LO:TX:t=P:problem=kreska pseudotaktowa	!	!	!	!	!
2d\	.	.	.	.	.
=11-	=11-	=11-	=11-	=11-	=11-
!	!	!LO:TX:t=P:problem=kreska pseudotaktowa	!	!	!
2B\	.	1G	.	1.e	.
!LO:TX:t=P:problem=kreska pseudotaktowa	!	!	!	!	!
2c\	.	.	.	.	.
!	!	!LO:TX:t=P:problem=kreska pseudotaktowa	!	!	!
2G\	.	1E	.	.	.
!LO:TX:t=P:problem=kreska pseudotaktowa	!	!	!	!LO:TX:t=P:problem=kreska pseudotaktowa	!
2A\	.	.	.	2e\	.
=12-	=12-	=12-	=12-	=12-	=12-
2.A\	.	2.F#X/	.	2.d\	.
!LO:TX:t=P:problem=kreska pseudotaktowa	!	!	!	!LO:TX:t=P:problem=kreska pseudotaktowa	!
4A\	-ti-	4F#/	-ti-	4d\	-ti-
0B;	-as.	0G;	-as.	0d	-as.
=13-	=13-	=13-	=13-	=13-	=13-
.	.	.	.	.	.
==	==	==	==	==	==
*-	*-	*-	*-	*-	*-
!!!system-decoration: [(s1,s2,s3)]
!!!RDF**kern: > = above
!!!RDF**kern: < = below
!!!EED: Andrzej Borzym
!!!EEV: 2021-08-04
!!!ENC: Anastazja Marusiak
!!!END: 2021-07-10
